src/static/logos/shipit.svg

<?xml version="1.0" encoding="UTF-8" standalone="no"?>
<svg width="512px" height="135px" viewBox="0 0 512 135" version="1.1" xmlns="http://www.w3.org/2000/svg" xmlns:xlink="http://www.w3.org/1999/xlink" preserveAspectRatio="xMidYMid">
	<g fill-rule="evenodd">
		<path d="M271.013495,133.368242 L253.918901,133.368242 L253.918901,60.1434505 L270.867653,60.1434505 L270.867653,90.5976242 L300.382642,90.5976242 L300.382642,60.1801697 L317.378457,60.1801697 L317.378457,133.266877 L300.590545,133.266877 L300.590545,102.591354 L271.013495,102.591354 C271.014529,112.735677 271.014529,122.929131 271.014529,133.368242 L271.013495,133.368242 Z M362.480485,60.0881131 C363.059717,60.0539798 363.566545,59.9950222 364.070788,59.9950222 C372.76703,59.9898505 381.463273,59.970198 390.159515,60.0043313 C394.316024,60.0208808 398.380477,60.7035475 402.29857,62.1112889 C412.366869,65.7304566 417.904226,73.7957495 417.536517,84.4841374 C417.451184,86.958804 417.169325,89.4841535 416.540962,91.8703838 C414.101463,101.128792 407.480113,106.026408 398.57183,107.987523 C394.666149,108.84758 390.563943,108.857923 386.540865,109.119095 C384.244622,109.267523 381.929762,109.145988 379.375968,109.145988 L379.375968,133.661996 L362.479968,133.661996 C362.481519,109.143919 362.481519,84.6537697 362.481519,60.0881131 L362.480485,60.0881131 Z M244.484137,67.2602505 C242.909867,70.1807192 241.556945,72.9553455 239.957333,75.5799919 C238.526836,77.9279515 236.637091,78.1849859 233.897632,76.9577374 C230.934238,75.6301576 227.994117,74.0926061 224.878158,73.3189172 C222.731895,72.7862303 220.235507,73.0913616 218.015289,73.5723313 C215.210149,74.1794909 213.436251,76.1219879 212.975451,79.1179636 C212.508962,82.1625535 213.665875,84.4241455 216.342238,85.7222465 C218.881552,86.9531152 221.568259,87.8871273 224.207386,88.9100929 C227.806901,90.3064566 231.540881,91.4168242 235.005931,93.0888404 C242.581463,96.7452444 246.078578,103.760679 245.386602,112.167305 C244.279855,125.606012 234.193972,133.976436 221.045398,134.450683 C211.957139,134.779604 203.714974,132.249083 196.346311,126.915491 C195.59124,126.36884 194.919952,125.707895 194.053689,124.965754 C195.858618,122.091313 197.500121,119.279968 199.344356,116.608259 C200.666246,114.694723 202.869398,114.286158 205.118061,115.403248 C206.730602,116.205899 208.2304,117.234036 209.796396,118.132364 C214.045996,120.570311 218.52522,121.725673 223.418699,120.537212 C226.723426,119.734044 228.661786,117.748105 229.167063,114.679208 C229.734917,111.23381 229.091556,108.199046 225.736145,106.542028 C223.212347,105.295644 220.49099,104.441277 217.844105,103.450893 C214.148396,102.068493 210.285123,101.034149 206.771459,99.291798 C200.644525,96.252897 197.67958,90.9456808 197.026392,84.1893495 C195.657956,70.0255677 206.018457,60.7490586 218.599693,59.5916283 C226.502077,58.8655192 234.046061,60.2706747 240.858764,64.6030222 C242.074117,65.3751596 243.189139,66.3034828 244.485689,67.2612848 L244.484137,67.2602505 Z M511.512824,60.1367273 L511.512824,73.333398 L491.286238,73.333398 L491.286238,133.26998 L474.128549,133.26998 L474.128549,73.526303 L453.688889,73.526303 L453.688889,60.1367273 L511.512824,60.1367273 L511.512824,60.1367273 Z M348.26602,133.340832 L331.296065,133.340832 L331.296065,60.1160404 L348.26602,60.1160404 L348.26602,133.340832 Z M444.459442,133.342384 L427.490004,133.342384 L427.490004,60.1160404 L444.459442,60.1160404 L444.459442,133.342384 Z M379.485091,72.740202 C383.813818,72.9558626 387.970844,72.8591515 392.030642,73.4414869 C397.146505,74.1758707 399.988364,77.5695515 400.393309,82.769196 C400.525188,84.4675879 400.478642,86.2394182 400.145067,87.9036768 C399.140202,92.9393778 395.741349,95.7155556 389.979539,96.0837818 C386.553277,96.3030626 383.101156,96.123604 379.486125,96.123604 L379.486125,72.740202 L379.485091,72.740202 Z" fill="#464462"></path>
		<g>
			<path d="M0.0620606061,82.8509091 C10.8999111,94.7468929 24.8102788,100.455434 39.5843232,104.394214 C55.946602,108.758109 72.6326303,109.970877 89.5172525,108.771038 C117.391774,106.790271 143.059006,98.3670949 166.260364,82.6657616 C166.532913,82.4811313 166.829253,82.3311515 167.382626,82.0089535 C167.449859,82.8312566 167.558465,83.4544485 167.542949,84.0740202 C167.222303,96.4370101 163.98998,107.831855 156.30636,117.740347 C151.753697,123.611281 146.105147,128.207903 139.717042,131.919127 C138.863709,132.414061 137.794715,132.712986 136.805366,132.775046 C127.779168,133.346521 118.755038,134.079871 109.718497,134.314149 C94.8203313,134.698408 79.9123394,134.93217 65.0100364,134.877867 C51.9173172,134.827701 38.8370101,134.102109 25.8363475,132.408372 C24.726497,132.264598 23.5054545,131.784663 22.645398,131.082861 C10.6609778,121.2928 3.69881212,108.585891 1.05606465,93.4317253 C0.628363636,90.9751596 0.356331313,88.4891152 0.0796444444,86.0092768 C-0.0248242424,85.0783677 0.0625777778,84.1236687 0.0625777778,82.8493576 L0.0620606061,82.8509091 Z" fill="#464563"></path>
			<path d="M138.426182,91.6831677 C120.771491,99.2597333 93.0950465,105.004477 81.3873131,103.681552 C81.7193374,99.0776889 82.0730828,94.4691717 82.3771798,89.8575515 C82.8291879,82.9879596 83.5180606,76.1199192 83.6204606,69.2430869 C83.8262949,55.4739071 83.964897,41.6933495 83.6230465,27.9293414 C83.4037657,19.0919111 82.4718222,10.2472404 79.6956444,1.73666263 C79.5973818,1.43670303 79.6335838,1.09381818 79.546699,0.0263757576 C81.0325333,1.16415354 82.2411636,1.79820606 83.0546747,2.76428283 C85.7129374,5.92006465 88.4022303,9.07481212 90.7688081,12.4478061 C102.295014,28.8747313 112.378828,46.203604 122.485398,63.5148929 C127.168388,71.5362263 131.704501,79.6439273 136.295952,87.7174949 C137.012752,88.9762909 137.668525,90.2681859 138.426699,91.684202 L138.426182,91.6831677 Z M95.2971636,30.0114747 C95.1275313,30.0683636 94.9573818,30.126804 94.7872323,30.1836929 C94.7872323,30.7251717 94.6724202,31.2956121 94.8063677,31.8024404 C95.3969778,34.0278303 95.9943111,36.2552889 96.7059394,38.4449939 C99.7469091,47.7990788 102.962683,57.0993778 105.853673,66.5000081 C107.883055,73.0991192 109.555588,79.8120081 111.255014,86.5083475 C111.874069,88.9504323 112.109382,91.4887111 112.556218,94.2007596 C118.34337,94.0187152 123.792808,92.7387152 129.15743,90.9922263 C130.493802,90.5567677 130.521729,89.5891394 130.084202,88.5118707 C129.536,87.1646384 129.018828,85.7915475 128.327887,84.5156848 C124.493059,77.4314667 120.817002,70.2500202 116.693592,63.3364687 C110.733705,53.3431596 104.457309,43.538101 98.2615919,33.6854626 C97.4299798,32.361503 96.292202,31.2309657 95.2966465,30.0109576 L95.2971636,30.0114747 Z" fill="#E88826"></path>
			<path d="M25.1914343,92.2892929 C32.3408162,80.2779798 39.1550707,68.4135434 46.3861657,56.8092444 C52.5751596,46.8785131 59.154101,37.1851636 65.7542465,27.5181899 C67.6781253,24.6985697 70.1284848,22.1913212 72.5860848,19.7968162 C74.8962909,17.5455677 76.3717818,17.9815434 77.0668606,21.0918141 C77.7769374,24.2682828 78.2977293,27.5254303 78.4916687,30.7732687 C79.345002,45.0678949 78.9260929,59.3651071 78.2227394,73.655596 C77.8555475,81.1411394 77.462497,88.624097 77.0425535,96.1060202 C76.9080889,98.5067313 76.6510545,100.900202 76.4095354,103.770505 C74.2291394,103.78602 72.1133899,103.947895 70.0214303,103.789123 C58.4936727,102.920275 47.1365818,101.022255 36.0623838,97.6606384 C33.4429091,96.8662626 30.9165253,95.7212444 28.4237576,94.5731232 C27.3014949,94.057503 26.3643798,93.1369374 25.1914343,92.2898101 L25.1914343,92.2892929 Z M58.4026505,49.8993131 C57.8327273,50.673002 57.5715556,50.9853737 57.3579636,51.3251556 C52.7085899,58.7170909 47.9671596,66.0542061 43.4579394,73.5304404 C40.8462222,77.8591677 38.5592889,82.3880404 36.2278788,86.8796768 C35.0590707,89.1314424 35.5917576,90.5810747 37.8088727,91.6459313 C42.0331313,93.6742788 46.5387313,94.5834667 51.0236444,95.6271192 C52.2607192,95.9167354 53.0861253,95.4616242 53.3198869,93.9447596 C53.8939475,90.2454303 54.7162505,86.5854061 55.3203071,82.8876283 C56.1296808,77.9279515 56.9535354,72.9656889 57.5389737,67.9775677 C58.1544081,62.7267232 58.5138424,57.4438141 58.9301657,52.1712485 C58.9767111,51.5868444 58.6638222,50.9745131 58.4026505,49.8998303 L58.4026505,49.8993131 Z" fill="#E88826"></path>
			<path d="M95.2966465,30.0114747 C96.2927192,31.2309657 97.4299798,32.3630545 98.2615919,33.6854626 C104.456275,43.5375838 110.732671,53.3431596 116.693592,63.3364687 C120.816485,70.2500202 124.492541,77.4314667 128.32737,84.5146505 C129.017794,85.7905131 129.536,87.1625697 130.083685,88.5113535 C130.520695,89.5886222 130.492251,90.5562505 129.155879,90.9917091 C123.791774,92.7387152 118.342853,94.0197495 112.554667,94.2007596 C112.108865,91.4892283 111.873552,88.9504323 111.25398,86.5083475 C109.555071,79.8135596 107.88202,73.1001535 105.853156,66.5005253 C102.962166,57.0998949 99.7469091,47.799596 96.7054222,38.4455111 C95.9932768,36.2563232 95.3959434,34.0288646 94.8053333,31.8024404 C94.6708687,31.2966465 94.7856808,30.7267232 94.7856808,30.1847273 C94.9563475,30.1278384 95.1270141,30.0709495 95.2961293,30.0130263 L95.2966465,30.0114747 Z M58.4026505,49.8993131 C58.6643394,50.9734788 58.9767111,51.5863273 58.9301657,52.169697 C58.5138424,57.4422626 58.1544081,62.7251717 57.5389737,67.9760162 C56.9545697,72.9646545 56.130198,77.9264 55.3203071,82.8860768 C54.7172848,86.582303 53.8939475,90.2438788 53.3209212,93.9432081 C53.0866424,95.4605899 52.2617535,95.9151838 51.0246788,95.6260848 C46.5408,94.581398 42.0341657,93.6732444 37.8093899,91.644897 C35.5927919,90.5795232 35.0595879,89.1304081 36.228396,86.8786424 C38.5608404,82.3870061 40.8477737,77.8591677 43.4584566,73.5294061 C47.9681939,66.0531717 52.7091071,58.7160566 57.3579636,51.323604 C57.5720727,50.9838222 57.8337616,50.6719677 58.4026505,49.898796 L58.4026505,49.8993131 Z" fill="#F7A81F"></path>
		</g>
	</g>
</svg>

<svg width="512" height="135" xmlns="http://www.w3.org/2000/svg" preserveAspectRatio="xMidYMid"><g fill-rule="evenodd"><path d="M271.013 133.368H253.92V60.143h16.949v30.455h29.515V60.18h16.995v73.087h-16.787V102.59h-29.578c.002 10.145.002 20.338.002 30.777h-.002zm91.467-73.28c.58-.034 1.087-.093 1.59-.093 8.697-.005 17.393-.025 26.09.01 4.156.016 8.22.699 12.139 2.106 10.068 3.62 15.605 11.685 15.238 22.373-.086 2.475-.368 5-.996 7.386-2.44 9.259-9.06 14.156-17.97 16.118-3.905.86-8.007.87-12.03 1.131-2.296.149-4.611.027-7.165.027v24.516H362.48c.002-24.518.002-49.008.002-73.574h-.002zM244.484 67.26c-1.574 2.92-2.927 5.695-4.527 8.32-1.43 2.348-3.32 2.605-6.06 1.378-2.963-1.328-5.903-2.865-9.019-3.64-2.146-.532-4.642-.227-6.863.254-2.805.607-4.579 2.55-5.04 5.546-.466 3.045.69 5.306 3.367 6.604 2.54 1.231 5.226 2.165 7.865 3.188 3.6 1.396 7.334 2.507 10.799 4.179 7.575 3.656 11.073 10.672 10.38 19.078-1.106 13.439-11.192 21.81-24.34 22.284-9.089.329-17.331-2.202-24.7-7.536-.755-.546-1.426-1.207-2.292-1.95 1.805-2.874 3.446-5.685 5.29-8.357 1.322-1.913 3.525-2.322 5.774-1.205 1.613.803 3.112 1.831 4.678 2.73 4.25 2.437 8.73 3.593 13.623 2.404 3.304-.803 5.243-2.789 5.748-5.858.568-3.445-.075-6.48-3.43-8.137-2.525-1.246-5.246-2.1-7.893-3.091-3.696-1.383-7.559-2.417-11.073-4.16-6.126-3.038-9.091-8.345-9.745-15.102-1.368-14.163 8.992-23.44 21.574-24.597 7.902-.726 15.446.679 22.259 5.011 1.215.772 2.33 1.7 3.627 2.658h-.002zm267.029-7.123v13.196h-20.227v59.937H474.13V73.526h-20.44v-13.39h57.824zM348.266 133.34h-16.97V60.116h16.97v73.225zm96.193.001H427.49V60.116h16.97v73.226zM379.485 72.74c4.329.216 8.486.12 12.546.701 5.116.735 7.957 4.129 8.362 9.328.132 1.699.086 3.47-.248 5.135-1.005 5.035-4.404 7.812-10.165 8.18-3.427.22-6.879.04-10.494.04V72.74z" fill="#464462"/><path d="M.062 82.85C10.9 94.748 24.81 100.456 39.584 104.395c16.363 4.364 33.049 5.577 49.933 4.377 27.875-1.98 53.542-10.404 76.743-26.105.273-.185.57-.335 1.123-.657.067.822.175 1.445.16 2.065-.32 12.363-3.553 23.758-11.237 33.666-4.552 5.871-10.2 10.468-16.589 14.18-.853.494-1.922.793-2.912.855-9.026.572-18.05 1.305-27.087 1.54-14.898.383-29.806.617-44.708.563-13.093-.05-26.173-.776-39.174-2.47-1.11-.143-2.33-.623-3.19-1.325-11.985-9.79-18.947-22.497-21.59-37.651-.428-2.457-.7-4.943-.976-7.423-.105-.93-.017-1.885-.017-3.16v.002z" fill="#464563"/><path d="M138.426 91.683c-17.655 7.577-45.331 13.321-57.039 11.999.332-4.604.686-9.213.99-13.824.452-6.87 1.141-13.738 1.243-20.615.206-13.77.345-27.55.003-41.314-.22-8.837-1.151-17.682-3.927-26.192-.099-.3-.062-.643-.15-1.71 1.487 1.137 2.695 1.771 3.509 2.737 2.658 3.156 5.347 6.31 7.714 9.684 11.526 16.427 21.61 33.756 31.716 51.067 4.683 8.021 9.22 16.129 13.811 24.202.717 1.26 1.373 2.551 2.13 3.967zM95.297 30.011l-.51.173c0 .541-.115 1.112.02 1.618.59 2.226 1.187 4.453 1.899 6.643 3.04 9.354 6.257 18.654 9.148 28.055 2.03 6.6 3.702 13.312 5.401 20.008.62 2.442.854 4.98 1.301 7.693 5.787-.182 11.237-1.462 16.601-3.209 1.337-.435 1.365-1.403.927-2.48-.548-1.347-1.065-2.72-1.756-3.996-3.835-7.085-7.511-14.266-11.634-21.18-5.96-9.993-12.237-19.798-18.432-29.65-.832-1.324-1.97-2.455-2.965-3.675zM25.191 92.29c7.15-12.012 13.964-23.876 21.195-35.48 6.19-9.931 12.768-19.625 19.368-29.292 1.924-2.82 4.374-5.327 6.832-7.721 2.31-2.251 3.786-1.815 4.48 1.295.71 3.176 1.232 6.433 1.426 9.681.853 14.295.434 28.592-.27 42.883-.366 7.485-.76 14.968-1.18 22.45-.134 2.4-.39 4.794-.632 7.665-2.18.015-4.297.177-6.389.018-11.527-.869-22.884-2.767-33.959-6.128-2.62-.795-5.145-1.94-7.638-3.088-1.123-.515-2.06-1.436-3.233-2.283zM58.403 49.9c-.57.773-.831 1.085-1.045 1.425-4.65 7.392-9.39 14.73-13.9 22.205-2.612 4.33-4.899 8.858-7.23 13.35-1.169 2.251-.636 3.701 1.58 4.766 4.225 2.028 8.73 2.937 13.216 3.981 1.237.29 2.062-.165 2.296-1.682.574-3.7 1.396-7.36 2-11.057.81-4.96 1.634-9.922 2.219-14.91.615-5.251.975-10.534 1.391-15.807.047-.584-.266-1.196-.527-2.271z" fill="#E88826"/><path d="M95.297 30.011c.996 1.22 2.133 2.352 2.965 3.674 6.194 9.853 12.47 19.658 18.432 29.651 4.122 6.914 7.799 14.095 11.633 21.179.69 1.276 1.209 2.648 1.757 3.996.437 1.078.408 2.045-.928 2.48-5.364 1.748-10.813 3.029-16.601 3.21-.446-2.712-.681-5.25-1.301-7.693-1.699-6.694-3.372-13.408-5.4-20.007-2.892-9.401-6.107-18.701-9.149-28.055-.712-2.19-1.31-4.417-1.9-6.644-.134-.505-.02-1.075-.02-1.617.171-.057.342-.114.511-.172v-.002zM58.403 49.9c.261 1.074.574 1.687.527 2.27-.416 5.273-.776 10.556-1.391 15.807-.584 4.989-1.409 9.95-2.219 14.91-.603 3.696-1.426 7.358-2 11.057-.233 1.518-1.058 1.972-2.295 1.683-4.484-1.045-8.99-1.953-13.216-3.981-2.216-1.065-2.75-2.515-1.58-4.766 2.332-4.492 4.619-9.02 7.23-13.35 4.51-7.476 9.25-14.813 13.899-22.205.214-.34.476-.652 1.045-1.425z" fill="#F7A81F"/></g></svg>
